X: 78
T:Galician Jig
M:6/8
L:1/8
R:Jig
Z:Steve Mansfield
K:C
g gag | e2g gag | d2g g2a | bag fed | e2c gag | e2g gag | d2d GBd |
GBd fed |1 c2 :|2 c3 gag |: bag fga | g2e gag | bag fed |
c3 gag | bag fga | g2e gag | bag fed |1 c3 gag :|2 c2 ||
<end>
<start>
